contributed-vectors/ark.svg

<?xml version="1.0" encoding="UTF-8" standalone="no"?>
<svg
   xmlns:dc="http://purl.org/dc/elements/1.1/"
   xmlns:cc="http://creativecommons.org/ns#"
   xmlns:rdf="http://www.w3.org/1999/02/22-rdf-syntax-ns#"
   xmlns:svg="http://www.w3.org/2000/svg"
   xmlns="http://www.w3.org/2000/svg"
   xmlns:sodipodi="http://sodipodi.sourceforge.net/DTD/sodipodi-0.dtd"
   xmlns:inkscape="http://www.inkscape.org/namespaces/inkscape"
   viewBox="0 0 192 192"
   version="1.1"
   id="svg16"
   sodipodi:docname="ark.svg"
   inkscape:version="0.92.4 (5da689c313, 2019-01-14)">
  <metadata
     id="metadata20">
    <rdf:RDF>
      <cc:Work
         rdf:about="">
        <dc:format>image/svg+xml</dc:format>
        <dc:type
           rdf:resource="http://purl.org/dc/dcmitype/StillImage" />
        <dc:title></dc:title>
      </cc:Work>
    </rdf:RDF>
  </metadata>
  <sodipodi:namedview
     pagecolor="#ffffff"
     bordercolor="#666666"
     borderopacity="1"
     objecttolerance="10"
     gridtolerance="10"
     guidetolerance="10"
     inkscape:pageopacity="0"
     inkscape:pageshadow="2"
     inkscape:window-width="1920"
     inkscape:window-height="1017"
     id="namedview18"
     showgrid="true"
     inkscape:zoom="3.4766083"
     inkscape:cx="29.106729"
     inkscape:cy="82.169494"
     inkscape:window-x="-8"
     inkscape:window-y="-8"
     inkscape:window-maximized="1"
     inkscape:current-layer="svg16"
     inkscape:snap-global="false">
    <inkscape:grid
       type="xygrid"
       id="grid827"
       spacingx="4"
       spacingy="4" />
  </sodipodi:namedview>
  <defs
     id="defs4">
    <style
       id="style2">.a{fill:none;stroke:#b1b5bd;stroke-linecap:round;stroke-linejoin:round;isolation:isolate;opacity:0.63;}</style>
  </defs>
  <path
     inkscape:connector-curvature="0"
     style="clip-rule:evenodd;fill:#a0a5af;fill-rule:evenodd;stroke-width:1.62231994"
     d="M 165.56529,126.01704 149.91373,153.12158 137.115,152.85556 143.70153,141.6 98.164496,66.897155 109.72238,46.793804 l 28.3802,40.897864 -3.45494,8.428279 7.89268,-2.910052 z"
     id="path4" />
  <path
     inkscape:connector-curvature="0"
     style="clip-rule:evenodd;fill:#a0a5af;fill-rule:evenodd;stroke-width:1.62231994"
     d="M 26.745838,126.58544 42.398197,153.68997 55.19597,153.42394 48.610558,142.1684 61.010273,121.82512 H 119.27324 L 105.27508,91.005876 V 103.55733 H 72.146042 L 94.146476,67.46522 82.590028,47.361869 l -3.102756,4.470825 1.76331,4.454469 h -4.802988 l -22.239364,31.972405 3.455736,8.428445 -7.893319,-2.910218 z"
     id="path6" />
  <path
     inkscape:connector-curvature="0"
     style="clip-rule:evenodd;fill:#98dc9a;fill-rule:evenodd;stroke-width:1.62231994"
     d="m 152.65506,156.20644 15.76785,-26.67162 15.76784,26.67162 z"
     id="path8" />
  <path
     inkscape:connector-curvature="0"
     style="clip-rule:evenodd;fill:#ff837d;fill-rule:evenodd;stroke-width:1.62231994"
     d="M 7.9935897,156.20644 23.761114,129.22253 39.528479,156.20644 Z"
     id="path10" />
  <path
     inkscape:connector-curvature="0"
     style="clip-rule:evenodd;fill:#9abeff;fill-rule:evenodd;stroke-width:1.62231994"
     d="m 80.324645,36.270393 15.767365,27.42739 15.768,-27.42739 z"
     id="path12" />
</svg>

<svg xmlns="http://www.w3.org/2000/svg" id="svg16" version="1.1" viewBox="0 0 192 192"><defs id="defs4"><style id="style2">.a{fill:none;stroke:#b1b5bd;stroke-linecap:round;stroke-linejoin:round;isolation:isolate;opacity:.63}</style></defs><path id="path4" d="m165.565 126.017-15.651 27.105-12.799-.266 6.587-11.256-45.538-74.703 11.558-20.103 28.38 40.898-3.454 8.428 7.892-2.91z" style="clip-rule:evenodd;fill:#a0a5af;fill-rule:evenodd;stroke-width:1.62231994"/><path id="path6" d="m26.746 126.585 15.652 27.105 12.798-.266-6.585-11.256 12.4-20.343h58.262l-13.998-30.82v12.552H72.146l22-36.092L82.59 47.362l-3.103 4.47 1.764 4.455h-4.803L54.208 88.26l3.456 8.428-7.893-2.91z" style="clip-rule:evenodd;fill:#a0a5af;fill-rule:evenodd;stroke-width:1.62231994"/><path id="path8" d="m152.655 156.206 15.768-26.671 15.768 26.671z" style="clip-rule:evenodd;fill:#98dc9a;fill-rule:evenodd;stroke-width:1.62231994"/><path id="path10" d="m7.994 156.206 15.767-26.983 15.767 26.983Z" style="clip-rule:evenodd;fill:#ff837d;fill-rule:evenodd;stroke-width:1.62231994"/><path id="path12" d="m80.325 36.27 15.767 27.428L111.86 36.27z" style="clip-rule:evenodd;fill:#9abeff;fill-rule:evenodd;stroke-width:1.62231994"/></svg>
